icons/egg.svg

<svg width="24" height="24" viewBox="0 0 24 24" fill="none" xmlns="http://www.w3.org/2000/svg">
<path fill-rule="evenodd" clip-rule="evenodd" d="M12 2.00001C12.8316 1.9983 13.6527 2.18834 14.3975 2.55565C15.1278 2.91585 15.7655 3.43703 16.2605 4.07993C18.8132 6.86789 20.1531 10.5336 19.9861 14.2882C19.973 18.5833 16.3677 22 12 22C7.63226 22 4.027 18.5833 4.01394 14.2882C3.84686 10.5336 5.18683 6.86788 7.73955 4.07993C8.23448 3.43703 8.87216 2.91585 9.6025 2.55565C10.3473 2.18834 11.1684 1.9983 12 2.00001ZM11.9975 4.00001C11.4724 3.99869 10.955 4.11862 10.4871 4.34937C10.0193 4.58009 9.61482 4.91474 9.30519 5.32507C9.28546 5.35121 9.26446 5.37637 9.24227 5.40045C7.02237 7.80895 5.86345 10.9787 6.01285 14.2188C6.01355 14.2341 6.01391 14.2495 6.01391 14.2648C6.01391 17.398 8.65931 20 12 20C15.3407 20 17.9861 17.398 17.9861 14.2648C17.9861 14.2495 17.9865 14.2341 17.9872 14.2188C18.1366 10.9787 16.9776 7.80895 14.7577 5.40045C14.7355 5.37637 14.7145 5.35121 14.6948 5.32507C14.3852 4.91474 13.9807 4.58009 13.5129 4.34937C13.045 4.11862 12.5276 3.99869 12.0025 4.00001H11.9975Z" fill="black"/>
</svg>

<svg
  width="24"
  height="24"
  viewBox="0 0 24 24"
  xmlns="http://www.w3.org/2000/svg"
>
  <path
    fill-rule="evenodd"
    clip-rule="evenodd"
    d="M12 2a5.397 5.397 0 0 1 2.398.556A5.32 5.32 0 0 1 16.26 4.08a14.18 14.18 0 0 1 3.725 10.208C19.973 18.583 16.368 22 12 22s-7.973-3.417-7.986-7.712A14.179 14.179 0 0 1 7.74 4.08a5.319 5.319 0 0 1 1.862-1.524A5.397 5.397 0 0 1 12 2zm-.002 2a3.397 3.397 0 0 0-1.51.35c-.469.23-.873.565-1.183.975-.02.026-.04.051-.063.075a12.18 12.18 0 0 0-3.228 8.865C6.014 17.398 8.659 20 12 20c3.34 0 5.986-2.602 5.986-5.735l.001-.046a12.18 12.18 0 0 0-3.23-8.819.992.992 0 0 1-.062-.075 3.318 3.318 0 0 0-1.182-.976A3.397 3.397 0 0 0 12.003 4h-.005z"
  />
</svg>
